X: 15263
T: Girl That Wears Green, The
R: jig
M: 6/8
K: Gmajor
|:D|GBd edB|gBB dBG|ABd edB|BAA A2 D|
GBd edB|gBB dBG|ABd edB|AGG G2:|
|:g|geg aga|geg aga|gag/f/ gee|def BAG|
GBd edB|gBB dBG|ABd edB|AGG G2:|

